X:626
T: EIN FESTE BURG IST UNSER GOTT
N: E1981
O: Europa, Mitteleuropa, Deutschland
R: geistlich, Lob - Lied
M: 4/4
L: 1/8
K: C
c2 | c2c2G2B2 | cBA2G2
c2 | B2A2G2A2 | FED2C2
c2 | c2c2G2B2 | cBA2G2
c2 | B2A2G2A2 | FED2C2
C2 | G2A2G2^F2 | G6
C2 | G4A2B2 | c6
B2 | c2B2A4 | G6
A2 | A2G2A2F2 | E6
c2 | B2A2G2A2 | FED2C2

